X:1
T:Tantum ergo - Breidenstein
%%score { 1 | 2 } 3
L:1/8
Q:1/4=120
M:4/4
K:F
V:1 treble nm="Soprano I" snm="S"
V:2 treble 
V:3 treble nm="Alto" snm="A"
V:1
"^Tantum ergo Sacramentum""^Heinrich Carl Breidenstein\n (1796-1876)""^lento"!p!!<(! c4 c4!<)! | %1
w: Tan- tum|
w: Ge- ni-|
!>(! f4 (e2 d2)!>)! | c4 B4 | A4 A2 z2 | A4 d4 | c4 c4 | c4 =B4 | c6 z2 | c4 (d2 e2) | f4 f4 | %10
w: er- go *|Sa- cra-|men- tum|ve- ne-|re- mur|cer- nu-|i:|et an\- *|ti- quum|
w: to- ri, *|Ge- ni-|to- que|laus et|ju- bi-|la- ti-|o,|sa- lus, *|ho- nor,|
[M:4/4] f4 (e2 d2) | (c4 B4) | A6 z2 | d4 c4 | (c2 B2) A4 | G4 (A2 G2) | G6 z2 | e4 (d2 c2) | %18
w: do- cu\- *|men\- *|tum|no- vo|ce\- * dat|ri- tu\- *|i;|prae- stet *|
w: vir- tus *|quo\- *|que|sit et|be\- * ne-|di- cti\- *|o:|pro- ce\- *|
 =B4 c4 | f4 f4 | e4 e4 | f4 (e2 g2) | f4 c4 | (d4!>(! c4- | c2 B2 A4) | G8!>)! | F8 :|!ff! f8- | %28
w: fi- des|sup- ple-|men- tum|sen- su\- *|um de-|fe\- *||ctu-|i.|A\-|
w: den- ti|ab u-|tro- que|com- par *|sit lau-|da\- *||ti-|o.||
 f8 | !fermata!f8 |] %30
w: |men.|
w: ||
V:2
!p!!<(! A4 G4!<)! |!>(! A4 (c2 B2)!>)! | A4 G4 | F4 F2 z2 | F4 F4 | E4 E4 | D4 D4 | E6 z2 | %8
w: Tan- tum|er- go *|Sa- cra-|men- tum|ve- ne-|re- mur|cer- nu-|i:|
w: Ge- ni-|to- ri, *|Ge- ni-|to- que|laus et|ju- bi-|la- ti-|o,|
 c4 _B4 | A4 c4 |[M:4/4] d4 (c2 B2) | (A4 G4) | F6 z2 | F4 E4 | (F2 G2) F4 | F4 F4 | E6 z2 | %17
w: et an-|ti- quum|do- cu\- *|men\- *|tum|no- vo|ce\- * dat|ri- tu-|i:|
w: sa- lus,|ho- nor,|vir- tus *|quo\- *|que|sit et|be\- * ne-|di- cti-|o:|
 G4 G4 | G4 G2 c2- | c4 =B4 | c4 c4 | (A2 c2) c4 | c4 A4 | (F4 E4 | F2 G2 F4- | F4) E4 | F8 :| %27
w: prae- stet|fi- des sup\-|* ple-|men- tum|sen\- * su-|um de-|fe\- *||* ctu-|i.|
w: pro- ce-|den- ti ab|* u-|tro- que|com\- * par|sit lau-|da\- *||* ti-|o.|
!ff! (d4 c4 | d2 c2 B4) | !fermata!A8 |] %30
w: A\- *||men.|
w: |||
V:3
!p!!<(! F4 E4!<)! |!>(! D4 B,4!>)! | C6 (DE) | F4 F2 z2 | F4 D4 | G4 G4 | G,4 G,4 | C6 z2 | A4 G4 | %9
w: Tan- tum|er- go|Sa- cra\- *|men- tum|ve- ne-|re- mur|cer- nu-|i:|et an-|
w: Ge- ni-|to- ri,|Ge- ni\- *|to- que|laus et|ju- bi-|la- ti-|o,|sa- lus,|
 F4 A4 |[M:4/4] B4 B,4 | (C6 ^C2) | D6 z2 | B,4 =C4 | (D2 E2) F4 | B,4 =B,4 | C6 z2 | C4 (D2 E2) | %18
w: ti- quum|do- cu-|men\- *|tum|no- vo|ce\- * dat|ri- tu-|i:|prae- stet *|
w: ho- nor,|vir- tus|quo\- *|que|sit et|be\- * ne-|di- cti-|o:|pro- ce\- *|
 F4 E4 | D4 G4 | C4 C4 | (F2 A2) B4 | A4 F4 | (B,4!>(! C4 | D2 E2 F4) | C8!>)! | F8 :|!ff! (B4 A4 | %28
w: fi- des|sup- ple-|men- tum|sen\- * su-|um de-|fe\- *||ctu-|i.|A\- *|
w: den- ti|ab u-|tro- que|com\- * par|sit lau-|da\- *||ti-|o.||
 B2 A2 G4) | !fermata!F8 |] %30
w: |men.|
w: ||

